X: 32578
T: Planxty Irwin
R: waltz
M: 3/4
K: Dmajor
[M:3/28]A|:"D"d>dc|"G"Bcd|"A7"A>AG|"D"FED|"A7"G>GE|
"D"FGA|"A"C2D|"A7"E2A|"D"d>dc|"G"Bcd|
"A7"A>AG|"D"FED|"A7"G>GE|"D"FGA|"A7"D>z C|"D"D2"A7"A:|
|:"D"d>ed|{e}dcd|"Em"e>fe|"A7"{f}ecA|"D"f>gf|"A"efd|
"E7"{e}dcB|"A7"ABc|"D"d>dc|"G"Bcd|"A7"A>AG|"D"FED|
"A7"G>GE|"D"FGA|"A7"D>z C|1 "D"D2"A7"A:|2 "D"D3||

